storage/app/icons/phosphoricons/bold/exclude-square-bold.svg

<svg xmlns="http://www.w3.org/2000/svg" fill="currentColor" viewBox="0 0 256 256"><path d="M228 160V96a12 12 0 0 0-12-12h-44V40a12 12 0 0 0-12-12H40a12 12 0 0 0-12 12v120a12 12 0 0 0 12 12h44v44a12 12 0 0 0 12 12h120a12 12 0 0 0 12-12zm-63 44-32-32h22l32 32ZM52 69l32 32v22L52 91Zm39-17 32 32h-22L69 52Zm17 96v-40h40v40Zm64 7v-22l32 32v22Zm32-24-23-23h23Zm-56-56-23-23h23Zm-96 50 23 23H52Zm56 56 23 23h-23Z"/></svg>

<svg xmlns="http://www.w3.org/2000/svg" viewBox="0 0 256 256" fill="currentColor"><path d="M228,160V96a12,12,0,0,0-12-12H172V40a12,12,0,0,0-12-12H40A12,12,0,0,0,28,40V96h0v64a12,12,0,0,0,12,12H84v44a12,12,0,0,0,12,12H216a12,12,0,0,0,12-12V160Zm-63,44-32-32H155l32,32ZM52,69l32,32V123L52,91ZM91,52l32,32H101L69,52Zm17,96V108h40v40Zm64,7V133l32,32V187Zm32-24-23-23h23ZM148,75,125,52h23ZM52,125l23,23H52Zm56,56,23,23H108Z"/></svg>
